X:963
T:Reel 963
M:4/4
K:Dmaj
L:1/8
D2FA dAFA|GFEG FDB,C|D2FA dAFA|BGEC DCB,A,|D2FA dAFA|GFEG FDB,C|D2FA dAFA|BGEC D2z2|fedc d2Ad|Bdef d2AB|cdec d2Ad|Bdce dcdc|Bdef d2dA|Beed cAAd|fdec dcBA|Bdce d2z2|
